icons/svg/filter-remove-outline.svg

﻿<?xml version="1.0" encoding="utf-8"?>
<!DOCTYPE svg PUBLIC "-//W3C//DTD SVG 1.1//EN" "http://www.w3.org/Graphics/SVG/1.1/DTD/svg11.dtd">
<svg xmlns="http://www.w3.org/2000/svg" xmlns:xlink="http://www.w3.org/1999/xlink" version="1.1" baseProfile="full" width="24" height="24" viewBox="0 0 24.00 24.00" enable-background="new 0 0 24.00 24.00" xml:space="preserve">
	<path fill="#000000" fill-opacity="1" stroke-width="0.2" stroke-linejoin="round" d="M 14.7322,20.8284L 17.5784,17.9822L 14.7322,15.1716L 16.1464,13.7574L 18.9926,16.568L 21.8033,13.7574L 23.2175,15.1716L 20.4069,17.9822L 23.2175,20.8284L 21.8033,22.2426L 18.9926,19.3964L 16.1464,22.2426L 14.7322,20.8284 Z M 2,2L 19.9888,2.00001L 20,2.00001L 20,2.01122L 20,3.99999L 19.9207,3.99999L 14,9.92065L 14,22.909L 8,16.909L 8,9.90594L 2.09405,3.99999L 2,3.99999L 2,2 Z M 9.99998,16.0806L 12,18.0806L 12,8.99999L 12.0922,8.99999L 17.0922,4L 4.92247,4L 9.92246,9L 9.99999,9L 9.99998,16.0806 Z "/>
</svg>

<svg xmlns="http://www.w3.org/2000/svg" version="1.1" baseProfile="full" width="24" height="24" viewBox="0 0 24.00 24.00" xml:space="preserve"><path fill="#000" fill-opacity="1" stroke-width=".2" stroke-linejoin="round" d="M14.732 20.828l2.846-2.846-2.846-2.81 1.414-1.415 2.847 2.81 2.81-2.81 1.415 1.415-2.81 2.81 2.81 2.846-1.415 1.415-2.81-2.847-2.847 2.847-1.414-1.415zM2 2h18v2h-.08L14 9.92v12.99l-6-6V9.905L2.094 4H2V2zm8 14.08l2 2V9h.092l5-5H4.922l5 5H10v7.08z"/></svg>
